!!!OTL: IN SANITATATEM OMNIUM
!!!ARE: Europa, Mitteleuropa, Deutschland
!!!SCT: F0506
!!!YEM: Copyright 1995, estate of Helmut Schaffrath.
**kern
*ICvox
*Ivox
*M3/4
*k[f#]
*G:
{8d
=1
8.g
16g
4.g
8b
=2
8.b
16a
4.a
8dd
=3
4b
4.r}
{8d
=4
8.g
16g
4.g
8b
=5
8.b
16a
4.a
8dd
=6
4b
4.r}
{8b
=7
8.dd
16dd
4.dd
8ee
=8
8.dd
16cc
4.cc}
{8cc
=9
8.b
16dd
4dd
8cc
8b
=10
8.b
16a
4.a}
{8dd
=11
8.b
16b
8.a
16a
8g}
==
!!!AGN: Studenten -, Trink - Lied, Trinkspruch
!!!ONB: ESAC (Essen Associative Code) Database: FINK
!!!AMT: simple triple
!!!AIN: vox
!!!EED: Helmut Schaffrath
!!!EEV: 1.0
*-
